resources/svg/regular/video-plus.svg

<svg xmlns="http://www.w3.org/2000/svg" fill="currentColor" stroke="none" viewBox="0 0 24 24"><path d="M11 8H9v3H6v2h3v3h2v-3h3v-2h-3z"/><path d="M18 7c0-1.103-.897-2-2-2H4c-1.103 0-2 .897-2 2v10c0 1.103.897 2 2 2h12c1.103 0 2-.897 2-2v-3.333L22 17V7l-4 3.333V7zm-1.999 10H4V7h12v5l.001 5z"/></svg>

<svg xmlns="http://www.w3.org/2000/svg" fill="currentColor" stroke="none" viewBox="0 0 24 24"><path d="M11 8L9 8 9 11 6 11 6 13 9 13 9 16 11 16 11 13 14 13 14 11 11 11z"/><path d="M18,7c0-1.103-0.897-2-2-2H4C2.897,5,2,5.897,2,7v10c0,1.103,0.897,2,2,2h12c1.103,0,2-0.897,2-2v-3.333L22,17V7l-4,3.333 V7z M16.001,17H4V7h12v5v0v0L16.001,17z"/></svg>
